X:106
T:Downies' Humour
M:2/4
L:1/8
B:Thompson's Compleat Collection of 200 Favourite Country Dances, vol. 1 (London, 1757)
Z:Transcribed and edited by Fynnian Titford-Mock, 2007
Z:abc's:AK/Fiddler's Companion
K:D
D|DFAd|fgaf|ecBA|BGEF|DFAd|fgaf|geaf|d/d/d d:|
|:f/g/|afdf|edef|dBAF|EDEF|af.df|edef|dBAF|D/D/D D:|

